!! J.S. Bach "Allemanda" from Partita No. 1, solo violin, BWV 1002.
!! From 'Neue Ausgabe Saemtlicher Werke' Serie VI: Kammermusikwerke,
!! Band 1 ('Werke fuer Violine') Baerenreiter Kassel (Basel) 1958; pp.10-11
!! NOTE: The repeats and the alternative ending at the end of bar 12
!!       and at the end of the movement have been expanded in this encoding.
!! NOTE: The 'monophonic' score has been expanded to a four-voice
!!       format to simplify the encoding of multiple stops.
!! NOTE: This encoding entails a considerable amount of interpretation
!!       of the voice of the 'parts'.
**kern	**kern	**kern	**kern
*M4/4	*M4/4	*M4/4	*M4/4
16r	16r	16r	16ff#
=1	=1	=1	=1
8.B	8.f#	8.dd	8.ff#
16r	16r	16r	16bb
4r	4r	8.ee	8.ggT
.	.	16r	32ff#
.	.	.	32gg
8.A#	8.f#	8.ff#	8.ee
16r	16r	16r	32dd
.	.	.	32cc#
4r	4r	4r	16.dd
.	.	.	32B
.	.	.	16.A
.	.	.	32ff#
=2	=2	=2	=2
8.G	8.d	8.b	8.ff#
16r	16r	16r	32gg
.	.	.	32ff#
2.r	2.r	2.r	16.ee
.	.	.	32dd
.	.	.	16.cc#T
.	.	.	32b
.	.	.	16.a#
.	.	.	32gn
.	.	.	16.f#
.	.	.	32e
.	.	.	16.d
.	.	.	32b
.	.	.	16.c#
.	.	.	32cc#
=3	=3	=3	=3
1r	2r	1r	16.dd
.	.	.	64B
.	.	.	64c#
.	.	.	16.d
.	.	.	32e
.	.	.	16f#
.	.	.	{32d
.	.	.	32e
.	.	.	16f#
.	.	.	32an
.	.	.	32g}
.	8.f#	.	8.a
.	16r	.	16a
.	8..r	.	16dd
.	.	.	32ff#
.	.	.	32ee
.	.	.	16.ff#
.	32d	.	32a
=4	=4	=4	=4
2r	16g	4r	16b
.	32b	.	16r
.	32a	.	.
.	16.g	.	16.r
.	32f#	.	32dd
.	16.e	16.b	16.gg
.	32e	32r	32r
.	16.f#	8r	16.r
.	32g	.	32b
16c#	16e	16a	16.gg
8.r	8.r	8.r	64ff#
.	.	.	64ee
.	.	.	16.aa
.	.	.	32gg
4r	4r	4r	16.ff#
.	.	.	32d
.	.	.	16.g
.	.	.	32ee
=5	=5	=5	=5
2r	1r	2r	{32dd
.	.	.	16.cc#}
.	.	.	{32b
.	.	.	16.a}
.	.	.	16.aa
.	.	.	32g
.	.	.	16.f#
.	.	.	64g
.	.	.	64e
[8aa	.	16.b	16.d#
.	.	32r	32r
32aa]	.	8r	8r
32aa	.	.	.
32gg	.	.	.
32ff#	.	.	.
16.b	.	4r	4r
32aa	.	.	.
16.ggT	.	.	.
32ff#	.	.	.
=6	=6	=6	=6
16.gg	1r	1r	1r
32ee	.	.	.
16.b	.	.	.
32g	.	.	.
16.e	.	.	.
32dd	.	.	.
16.cc#	.	.	.
32b	.	.	.
16.a#	.	.	.
32gg	.	.	.
16.ff#	.	.	.
32e	.	.	.
16.dn	.	.	.
{32f#	.	.	.
64b	.	.	.
64dd	.	.	.
16ff#}	.	.	.
=7	=7	=7	=7
16.g#	2r	2r	2r
32b	.	.	.
16.ee	.	.	.
32d	.	.	.
{12c#	.	.	.
12d	.	.	.
12e}	.	.	.
{12f#	.	.	.
12gn	.	.	.
12B}	.	.	.
16.A#	16.f#	16.cc#	16.ee
32r	32r	32r	64ff#
.	.	.	64gg
8r	8r	8r	16.ff#
.	.	.	32ee
8B	8f#	4r	{8eeT
8r	8r	.	64dd}
.	.	.	64cc#
.	.	.	32dd
=8	=8	=8	=8
1r	8.f#	1r	8.cc#
.	16r	.	32f#
.	.	.	32g#
.	2.r	.	{12a#
.	.	.	12b
.	.	.	12cc#}
.	.	.	{12dd
.	.	.	12ee
.	.	.	12ff#}
.	.	.	{12ggn
.	.	.	12ff#
.	.	.	12ee}
.	.	.	{12aa#
.	.	.	12bb
.	.	.	12ccc#}
.	.	.	16.ff#
.	.	.	32b
.	.	.	16.a
.	.	.	32ee
=9	=9	=9	=9
1r	2r	2r	{12B
.	.	.	12e
.	.	.	12gn}
.	.	.	{12a#
.	.	.	12cc#
.	.	.	12ee}
.	.	.	{12dd
.	.	.	12cc#
.	.	.	12b}
.	.	.	16.gg#
.	.	.	32gg#
.	8.e#	8.cc#	{8.gg#
.	16r	16r	32aan
.	.	.	32bb}
.	8r	8r	16.bb
.	.	.	32gg#
.	16.f#	16.cc#	16.aa
.	32r	32r	32ff#
=10	=10	=10	=10
16.c#	16.e	16.cc#	16.gg#
32r	32r	32r	64ee#
.	.	.	64cc#
8r	8r	8r	16.ccc#
.	.	.	32ccc#
2.r	2.r	2.r	16.ccc#
.	.	.	32een
.	.	.	16.a#
.	.	.	32ee
.	.	.	16.B
.	.	.	32ee
.	.	.	16.dd
.	.	.	32ff#
.	.	.	{12bb
.	.	.	12ccc#
.	.	.	12aa#}
.	.	.	{12bb
.	.	.	12ddd
.	.	.	12ccc#}
=11	=11	=11	=11
1r	2r	2r	16.ddd
.	.	.	32ee#
.	.	.	16.g#
.	.	.	32ee#
.	.	.	16.c#
.	.	.	32ddd
.	.	.	16.ccc#
.	.	.	32bb
.	8f#	8cc#	[16aa
.	.	.	64aa]
.	.	.	64gg#
.	.	.	64ff#
.	.	.	64ee#
.	16.a	8r	16.ff#
.	32b	.	32bb
.	4cc#	4r	8.gg#
.	.	.	16ff#
=12	=12	=12	=12
2.r	8.f#	8.cc#	8.ff#
.	16r	16r	32een
.	.	.	32dd
.	2.r	2.r	{12ee
.	.	.	12dd
.	.	.	12cc#}
.	.	.	{12dd
.	.	.	12b
.	.	.	12e#}
.	.	.	{12f#
.	.	.	12a#
.	.	.	12cc#}
.	.	.	[8ff#
16.r	.	.	16.ff#]
32en	.	.	32r
16.d	.	.	8r
32c#	.	.	.
=13	=13	=13	=13
8.B	8.f#	8.dd	8.ff#
16r	16r	16r	16bb
4r	4r	8.ee	8.ggT
.	.	16r	32ff#
.	.	.	32gg
8.A#	8.f#	8.ff#	8.ee
16r	16r	16r	32dd
.	.	.	32cc#
4r	4r	4r	16.dd
.	.	.	32B
.	.	.	16.A
.	.	.	32ff#
=14	=14	=14	=14
8.G	8.d	8.b	8.ff#
16r	16r	16r	32gg
.	.	.	32ff#
2.r	2.r	2.r	16.ee
.	.	.	32dd
.	.	.	16.cc#T
.	.	.	32b
.	.	.	16.a#
.	.	.	32gn
.	.	.	16.f#
.	.	.	32e
.	.	.	16.d
.	.	.	32b
.	.	.	16.c#
.	.	.	32cc#
=15	=15	=15	=15
1r	2r	1r	16.dd
.	.	.	64B
.	.	.	64c#
.	.	.	16.d
.	.	.	32e
.	.	.	16f#
.	.	.	{32d
.	.	.	32e
.	.	.	16f#
.	.	.	32an
.	.	.	32g}
.	8.f#	.	8.a
.	16r	.	16a
.	8..r	.	16dd
.	.	.	32ff#
.	.	.	32ee
.	.	.	16.ff#
.	32d	.	32a
=16	=16	=16	=16
2r	16g	4r	16b
.	32b	.	16r
.	32a	.	.
.	16.g	.	16.r
.	32f#	.	32dd
.	16.e	16.b	16.gg
.	32e	32r	32r
.	16.f#	8r	16.r
.	32g	.	32b
16c#	16e	16a	16.gg
8.r	8.r	8.r	64ff#
.	.	.	64ee
.	.	.	16.aa
.	.	.	32gg
4r	4r	4r	16.ff#
.	.	.	32d
.	.	.	16.g
.	.	.	32ee
=17	=17	=17	=17
2r	1r	2r	{32dd
.	.	.	16.cc#}
.	.	.	{32b
.	.	.	16.a}
.	.	.	16.aa
.	.	.	32g
.	.	.	16.f#
.	.	.	64g
.	.	.	64e
[8aa	.	16.b	16.d#
.	.	32r	32r
32aa]	.	8r	8r
32aa	.	.	.
32gg	.	.	.
32ff#	.	.	.
16.b	.	4r	4r
32aa	.	.	.
16.ggT	.	.	.
32ff#	.	.	.
=18	=18	=18	=18
16.gg	1r	1r	1r
32ee	.	.	.
16.b	.	.	.
32g	.	.	.
16.e	.	.	.
32dd	.	.	.
16.cc#	.	.	.
32b	.	.	.
16.a#	.	.	.
32gg	.	.	.
16.ff#	.	.	.
32e	.	.	.
16.dn	.	.	.
{32f#	.	.	.
64b	.	.	.
64dd	.	.	.
16ff#}	.	.	.
=19	=19	=19	=19
16.g#	2r	2r	2r
32b	.	.	.
16.ee	.	.	.
32d	.	.	.
{12c#	.	.	.
12d	.	.	.
12e}	.	.	.
{12f#	.	.	.
12gn	.	.	.
12B}	.	.	.
16.A#	16.f#	16.cc#	16.ee
32r	32r	32r	64ff#
.	.	.	64gg
8r	8r	8r	16.ff#
.	.	.	32ee
8B	8f#	4r	{8eeT
8r	8r	.	64dd}
.	.	.	64cc#
.	.	.	32dd
=20	=20	=20	=20
1r	8.f#	1r	8.cc#
.	16r	.	32f#
.	.	.	32g#
.	2.r	.	{12a#
.	.	.	12b
.	.	.	12cc#}
.	.	.	{12dd
.	.	.	12ee
.	.	.	12ff#}
.	.	.	{12ggn
.	.	.	12ff#
.	.	.	12ee}
.	.	.	{12aa#
.	.	.	12bb
.	.	.	12ccc#}
.	.	.	16.ff#
.	.	.	32b
.	.	.	16.a
.	.	.	32ee
=21	=21	=21	=21
1r	2r	2r	{12B
.	.	.	12e
.	.	.	12gn}
.	.	.	{12a#
.	.	.	12cc#
.	.	.	12ee}
.	.	.	{12dd
.	.	.	12cc#
.	.	.	12b}
.	.	.	16.gg#
.	.	.	32gg#
.	8.e#	8.cc#	{8.gg#
.	16r	16r	32aan
.	.	.	32bb}
.	8r	8r	16.bb
.	.	.	32gg#
.	16.f#	16.cc#	16.aa
.	32r	32r	32ff#
=22	=22	=22	=22
16.c#	16.e	16.cc#	16.gg#
32r	32r	32r	64ee#
.	.	.	64cc#
8r	8r	8r	16.ccc#
.	.	.	32ccc#
2.r	2.r	2.r	16.ccc#
.	.	.	32een
.	.	.	16.a#
.	.	.	32ee
.	.	.	16.B
.	.	.	32ee
.	.	.	16.dd
.	.	.	32ff#
.	.	.	{12bb
.	.	.	12ccc#
.	.	.	12aa#}
.	.	.	{12bb
.	.	.	12ddd
.	.	.	12ccc#}
=23	=23	=23	=23
1r	2r	2r	16.ddd
.	.	.	32ee#
.	.	.	16.g#
.	.	.	32ee#
.	.	.	16.c#
.	.	.	32ddd
.	.	.	16.ccc#
.	.	.	32bb
.	8f#	8cc#	[16aa
.	.	.	64aa]
.	.	.	64gg#
.	.	.	64ff#
.	.	.	64ee#
.	16.a	8r	16.ff#
.	32b	.	32bb
.	4cc#	4r	8.gg#
.	.	.	16ff#
=24	=24	=24	=24
1r	8.f#	8.cc#	8.ff#
.	16r	16r	32een
.	.	.	32dd
.	2.r	2.r	{12ee
.	.	.	12dd
.	.	.	12cc#}
.	.	.	{12dd
.	.	.	12b
.	.	.	12e#}
.	.	.	{12f#
.	.	.	12a#
.	.	.	12cc#}
.	.	.	[8ff#
.	.	.	8.ff#]
.	.	.	16cc#
=25	=25	=25	=25
1r	1r	8.f#	16.cc#
.	.	.	64dd
.	.	.	64ee
.	.	.	16.dd
.	.	16r	.
.	.	.	32b
.	.	2.r	16.a#
.	.	.	32f#
.	.	.	16.enT
.	.	.	64d
.	.	.	64e
.	.	.	{12d
.	.	.	12f#
.	.	.	12b}
.	.	.	{12d
.	.	.	12c#
.	.	.	12B}
.	.	.	16.A#
.	.	.	32cc#
.	.	.	16.f#
.	.	.	32e
=26	=26	=26	=26
2r	1r	1r	16.d
.	.	.	{64B
.	.	.	64c#
.	.	.	16.d}
.	.	.	32e
.	.	.	{12f#
.	.	.	12g
.	.	.	12an}
.	.	.	{12b
.	.	.	12ccn
.	.	.	12a}
8.G	.	.	8.d#
16r	.	.	16f#
4r	.	.	16.b
.	.	.	32b
.	.	.	16.cc#
.	.	.	32dd#
=27	=27	=27	=27
16.G	16.e	16.b	16.ee
32r	32r	32r	64gg
.	.	.	64ff#
8r	8r	8r	16.gg
.	.	.	32b
2.r	2.r	2.r	{12ccn
.	.	.	12b
.	.	.	12a}
.	.	.	{12gg
.	.	.	12ff#
.	.	.	12ee}
.	.	.	{12ee
.	.	.	12dd#
.	.	.	12cc#}
.	.	.	{12dd#
.	.	.	12cc#
.	.	.	12b}
.	.	.	16.bb
.	.	.	{64b
.	.	.	64cc#
.	.	.	32ddn
.	.	.	32ee
.	.	.	16ffn}
=28	=28	=28	=28
1r	2r	2r	{16g#
.	.	.	16ee
.	.	.	16bb
.	.	.	32cccn
.	.	.	32ddd}
.	.	.	16.ddd
.	.	.	32ccc
.	.	.	16.ddd
.	.	.	32bb
.	8.a	8.ee	8.ccc
.	16b	16r	16r
.	{12ccn	4r	8r
.	12b	.	.
.	12a}	.	.
.	8r	.	{12ff
.	.	.	12ggn
.	.	.	12aa}
=29	=29	=29	=29
1r	1r	16.d#	16.aa
.	.	32r	64gg
.	.	.	64ff#
.	.	8r	16.bb
.	.	.	32aa
.	.	2.r	16.ggT
.	.	.	{32ff#
.	.	.	32gg
.	.	.	32aa
.	.	.	16ff#}
.	.	.	{12gg
.	.	.	12ee
.	.	.	12b}
.	.	.	{12g
.	.	.	12e
.	.	.	12B}
.	.	.	{12dn
.	.	.	12g
.	.	.	12b}
.	.	.	{12ddn
.	.	.	12ee
.	.	.	12ffn}
=30	=30	=30	=30
16.cn	16.g	16.ccn	[16ee
.	.	.	64ee]
.	.	.	64dd
32r	32r	32r	64cc
.	.	.	64b
8r	8r	8r	16.cc
.	.	.	32ee
4r	4r	2.r	{8.a#T
.	.	.	32b
.	.	.	32a#}
16G	16e	.	{12b
.	.	.	12cc#
8.r	8.r	.	.
.	.	.	12dd#}
.	.	.	{12ee
.	.	.	12gg
.	.	.	12ff#}
8B	8f#	.	{8.ee
.	.	.	16.ddT}
.	.	.	32ee
=31	=31	=31	=31
1r	1r	8.e	8.ee
.	.	16f#	16r
.	.	{12g	2.r
.	.	12an	.
.	.	12b}	.
.	.	{12cc	.
.	.	12ddn	.
.	.	12ee}	.
.	.	16.c	.
.	.	32e	.
.	.	16.a	.
.	.	32g	.
.	.	16.f#	.
.	.	32aa	.
.	.	16.e	.
.	.	32gg	.
=32	=32	=32	=32
1r	1r	{12d	1r
.	.	12a	.
.	.	12g}	.
.	.	{12ff#	.
.	.	12ee	.
.	.	12aa#}	.
.	.	{12bb	.
.	.	12ff#	.
.	.	12ee}	.
.	.	{12dd	.
.	.	12cc#	.
.	.	12ee}	.
.	.	{12a#	.
.	.	12gn	.
.	.	12f#}	.
.	.	{12e	.
.	.	12a	.
.	.	12gg}	.
.	.	16.ff#	.
.	.	32d	.
.	.	16.c#	.
.	.	32ee	.
=33	=33	=33	=33
2r	2r	[16B	1r
.	.	64B]	.
.	.	64ee	.
.	.	64dd	.
.	.	64cc#	.
.	.	16.dd	.
.	.	32ee	.
.	.	12ff#	.
.	.	{12ee	.
.	.	12ff#	.
.	.	12gg	.
.	.	12aan	.
.	.	12bb}	.
8.A	8.f#	16.ccn	.
.	.	{64aa	.
.	.	64gg	.
.	.	12ff#	.
.	.	12ee	.
16r	16r	.	.
.	.	12dd}	.
4r	4r	{12cc	.
.	.	12b	.
.	.	12cc}	.
.	.	16.aa	.
.	.	32cc	.
=34	=34	=34	=34
1r	2r	2r	{12d#
.	.	.	12f#
.	.	.	12b}
.	.	.	{12dd#
.	.	.	12ff#
.	.	.	12aa}
.	.	.	{12cccn
.	.	.	12bb
.	.	.	12aa}
.	.	.	{12gg
.	.	.	12aa
.	.	.	12ff#}
.	16.e	16.b	16.gg
.	32r	32r	32ff#
.	8r	8r	16.ee
.	.	.	32dd
.	4r	4r	{12ccn
.	.	.	12ee
.	.	.	12dd}
.	.	.	{12cc
.	.	.	12a#
.	.	.	12b}
=35	=35	=35	=35
1r	1r	2r	{12a#
.	.	.	12cc#
.	.	.	12gg}
.	.	.	{12ff#
.	.	.	12a#
.	.	.	12e}
.	.	.	16.d
.	.	.	64bb
.	.	.	64aan
.	.	.	16.gg
.	.	.	32ff#
.	.	8..r	{12ee#
.	.	.	12ff#
.	.	.	12gg#}
.	.	.	16.ff#
.	.	32en	32b
.	.	4f#	{8ddT
.	.	.	32cc#}
.	.	.	32b
.	.	.	16cc#
=36	=36	=36	=36
2r	8.B	8.f#	8.b
.	16r	16r	32dd
.	.	.	32cc#
.	4r	4r	{12dd
.	.	.	12b
.	.	.	12dd}
.	.	.	{12ff#
.	.	.	12bb
.	.	.	12aa#}
4.B	4.f#	4.dd	4.bb
16r	16r	16r	16r
16r	16r	16r	16cc#
=37	=37	=37	=37
1r	1r	8.f#	16.cc#
.	.	.	64dd
.	.	.	64ee
.	.	.	16.dd
.	.	16r	.
.	.	.	32b
.	.	2.r	16.a#
.	.	.	32f#
.	.	.	16.enT
.	.	.	64d
.	.	.	64e
.	.	.	{12d
.	.	.	12f#
.	.	.	12b}
.	.	.	{12d
.	.	.	12c#
.	.	.	12B}
.	.	.	16.A#
.	.	.	32cc#
.	.	.	16.f#
.	.	.	32e
=38	=38	=38	=38
2r	1r	1r	16.d
.	.	.	{64B
.	.	.	64c#
.	.	.	16.d}
.	.	.	32e
.	.	.	{12f#
.	.	.	12g
.	.	.	12an}
.	.	.	{12b
.	.	.	12ccn
.	.	.	12a}
8.G	.	.	8.d#
16r	.	.	16f#
4r	.	.	16.b
.	.	.	32b
.	.	.	16.cc#
.	.	.	32dd#
=39	=39	=39	=39
16.G	16.e	16.b	16.ee
32r	32r	32r	64gg
.	.	.	64ff#
8r	8r	8r	16.gg
.	.	.	32b
2.r	2.r	2.r	{12ccn
.	.	.	12b
.	.	.	12a}
.	.	.	{12gg
.	.	.	12ff#
.	.	.	12ee}
.	.	.	{12ee
.	.	.	12dd#
.	.	.	12cc#}
.	.	.	{12dd#
.	.	.	12cc#
.	.	.	12b}
.	.	.	16.bb
.	.	.	{64b
.	.	.	64cc#
.	.	.	32ddn
.	.	.	32ee
.	.	.	16ffn}
=40	=40	=40	=40
1r	2r	2r	{16g#
.	.	.	16ee
.	.	.	16bb
.	.	.	32cccn
.	.	.	32ddd}
.	.	.	16.ddd
.	.	.	32ccc
.	.	.	16.ddd
.	.	.	32bb
.	8.a	8.ee	8.ccc
.	16b	16r	16r
.	{12ccn	4r	8r
.	12b	.	.
.	12a}	.	.
.	8r	.	{12ff
.	.	.	12ggn
.	.	.	12aa}
=41	=41	=41	=41
1r	1r	16.d#	16.aa
.	.	32r	64gg
.	.	.	64ff#
.	.	8r	16.bb
.	.	.	32aa
.	.	2.r	16.ggT
.	.	.	{32ff#
.	.	.	32gg
.	.	.	32aa
.	.	.	16ff#}
.	.	.	{12gg
.	.	.	12ee
.	.	.	12b}
.	.	.	{12g
.	.	.	12e
.	.	.	12B}
.	.	.	{12dn
.	.	.	12g
.	.	.	12b}
.	.	.	{12ddn
.	.	.	12ee
.	.	.	12ffn}
=42	=42	=42	=42
16.cn	16.g	16.ccn	[16ee
.	.	.	64ee]
.	.	.	64dd
32r	32r	32r	64cc
.	.	.	64b
8r	8r	8r	16.cc
.	.	.	32ee
4r	4r	2.r	{8.a#T
.	.	.	32b
.	.	.	32a#}
16G	16e	.	{12b
.	.	.	12cc#
8.r	8.r	.	.
.	.	.	12dd#}
.	.	.	{12ee
.	.	.	12gg
.	.	.	12ff#}
8B	8f#	.	{8.ee
.	.	.	16.ddT}
.	.	.	32ee
=43	=43	=43	=43
1r	1r	8.e	8.ee
.	.	16f#	16r
.	.	{12g	2.r
.	.	12an	.
.	.	12b}	.
.	.	{12cc	.
.	.	12ddn	.
.	.	12ee}	.
.	.	16.c	.
.	.	32e	.
.	.	16.a	.
.	.	32g	.
.	.	16.f#	.
.	.	32aa	.
.	.	16.e	.
.	.	32gg	.
=44	=44	=44	=44
1r	1r	{12d	1r
.	.	12a	.
.	.	12g}	.
.	.	{12ff#	.
.	.	12ee	.
.	.	12aa#}	.
.	.	{12bb	.
.	.	12ff#	.
.	.	12ee}	.
.	.	{12dd	.
.	.	12cc#	.
.	.	12ee}	.
.	.	{12a#	.
.	.	12gn	.
.	.	12f#}	.
.	.	{12e	.
.	.	12a	.
.	.	12gg}	.
.	.	16.ff#	.
.	.	32d	.
.	.	16.c#	.
.	.	32ee	.
=45	=45	=45	=45
2r	2r	[16B	1r
.	.	64B]	.
.	.	64ee	.
.	.	64dd	.
.	.	64cc#	.
.	.	16.dd	.
.	.	32ee	.
.	.	12ff#	.
.	.	{12ee	.
.	.	12ff#	.
.	.	12gg	.
.	.	12aan	.
.	.	12bb}	.
8.A	8.f#	16.ccn	.
.	.	{64aa	.
.	.	64gg	.
.	.	12ff#	.
.	.	12ee	.
16r	16r	.	.
.	.	12dd}	.
4r	4r	{12cc	.
.	.	12b	.
.	.	12cc}	.
.	.	16.aa	.
.	.	32cc	.
=46	=46	=46	=46
1r	2r	2r	{12d#
.	.	.	12f#
.	.	.	12b}
.	.	.	{12dd#
.	.	.	12ff#
.	.	.	12aa}
.	.	.	{12cccn
.	.	.	12bb
.	.	.	12aa}
.	.	.	{12gg
.	.	.	12aa
.	.	.	12ff#}
.	16.e	16.b	16.gg
.	32r	32r	32ff#
.	8r	8r	16.ee
.	.	.	32dd
.	4r	4r	{12ccn
.	.	.	12ee
.	.	.	12dd}
.	.	.	{12cc
.	.	.	12a#
.	.	.	12b}
=47	=47	=47	=47
1r	1r	2r	{12a#
.	.	.	12cc#
.	.	.	12gg}
.	.	.	{12ff#
.	.	.	12a#
.	.	.	12e}
.	.	.	16.d
.	.	.	64bb
.	.	.	64aan
.	.	.	16.gg
.	.	.	32ff#
.	.	8..r	{12ee#
.	.	.	12ff#
.	.	.	12gg#}
.	.	.	16.ff#
.	.	32en	32b
.	.	4f#	{8ddT
.	.	.	32cc#}
.	.	.	32b
.	.	.	16cc#
=48	=48	=48	=48
2r	8.B	8.f#	8.b
.	16r	16r	32dd
.	.	.	32cc#
.	4r	4r	{12dd
.	.	.	12b
.	.	.	12dd}
.	.	.	{12ff#
.	.	.	12bb
.	.	.	12aa#}
4.B	4.f#	4.dd	4.bb
16r	16r	16r	16r
==	==	==	==
*-	*-	*-	*-
